tropicofc/img/like-icon.svg

<svg width="24" height="23" viewBox="0 0 24 23" fill="none" xmlns="http://www.w3.org/2000/svg">
<path d="M18.995 21.9998H12.7397L12.6634 21.9614C10.8707 21.8846 9.03982 21.5007 7.24711 20.9248C6.98012 20.848 6.56055 20.5792 6.56055 19.9265C6.56055 16.3942 6.56055 12.8619 6.56055 9.36804C6.56055 8.9841 6.71312 8.67694 7.01826 8.44658C7.93368 7.71708 8.58211 7.14117 9.15424 6.52686C9.72638 5.91254 10.0697 5.33663 10.2985 4.72232C10.6418 3.76246 10.9851 2.84099 11.3284 1.95792C11.4428 1.68916 11.5572 1.382 11.7861 1.07485C12.3582 0.268565 13.1974 -0.0769848 14.1128 0.0381984C15.1808 0.191776 15.9436 0.806087 16.1725 1.80434C16.3251 2.22668 16.4013 2.68741 16.4013 3.14815C16.4776 4.53035 16.2106 5.87415 16.0199 7.10277C16.0199 7.14117 16.0199 7.17956 15.9818 7.25635C16.1725 7.25635 16.3632 7.25635 16.5539 7.25635C17.5075 7.25635 18.4229 7.25635 19.3765 7.25635H19.4146C20.4063 7.25635 21.3217 7.75548 21.8557 8.56176C22.3516 9.32965 22.466 10.2895 22.1609 11.1726C22.3134 11.3646 22.466 11.5565 22.6186 11.7869C22.7712 12.0557 22.8474 12.3244 22.9237 12.5548C22.9619 12.6316 22.9619 12.7084 23 12.7851L23.0382 12.9003L23 13.6298C23 13.6682 23 13.7066 22.9619 13.745C22.8474 14.3209 22.5804 14.8584 22.199 15.2424C22.3897 15.7799 22.4279 16.3558 22.2753 16.9317C22.1227 17.5077 21.8176 18.0068 21.3599 18.4291C21.7032 19.5426 21.3599 20.7328 20.4445 21.5007C20.0249 21.8462 19.529 21.9998 19.1095 22.115L18.995 21.9998ZM13.0066 20.464H18.8043C19.0713 20.3872 19.3002 20.3105 19.4528 20.1569C19.9486 19.7345 20.1012 19.0818 19.796 18.4675C19.7579 18.4291 19.7579 18.3907 19.7579 18.3523L19.4528 17.738L20.063 17.3541C20.4445 17.1237 20.7115 16.8166 20.7877 16.4326C20.864 16.0487 20.8259 15.6647 20.597 15.3576L20.1775 14.7433L20.8259 14.2825C20.864 14.2441 20.9022 14.2441 20.9403 14.2057C21.2073 13.9754 21.398 13.7066 21.4743 13.3611C21.4743 13.3227 21.4743 13.2843 21.5125 13.2459V13.0539C21.5125 12.9771 21.4743 12.9387 21.4743 12.8619C21.4362 12.7084 21.398 12.5932 21.3599 12.5164C21.2836 12.3628 21.131 12.2092 20.9785 12.0557C20.9022 11.9789 20.8259 11.8637 20.7496 11.7869L21.3217 11.2878L20.597 11.019C20.597 11.019 20.6733 10.7886 20.7496 10.6351C20.9403 10.2127 20.9022 9.75199 20.6352 9.36804C20.3682 8.9841 19.9105 8.75373 19.4528 8.75373C18.4992 8.75373 17.5456 8.75373 16.6302 8.75373C16.2106 8.75373 15.7911 8.75373 15.3715 8.75373H14.1891L14.4561 7.48672C14.4942 7.25635 14.5324 7.02598 14.6086 6.79562C14.7994 5.60539 15.0282 4.41516 14.9901 3.18654C14.9901 2.84099 14.9138 2.49544 14.8375 2.14989C14.6468 1.91953 14.4942 1.61237 13.9221 1.53558C13.5406 1.49719 13.2736 1.61237 13.0066 1.95792C12.8922 2.1115 12.7778 2.34186 12.7397 2.49544C12.3964 3.37851 12.0531 4.29998 11.7098 5.22145C11.4047 6.02773 10.9851 6.75722 10.2604 7.52511C9.68824 8.17782 9.00167 8.79213 8.08625 9.52162C8.08625 12.8619 8.08625 16.2022 8.08625 19.5426C9.6501 20.0417 11.2139 20.3105 12.7397 20.3872C12.8541 20.464 12.9304 20.464 13.0066 20.464Z" fill="black"/>
<path d="M1.5257 20.656C0.495854 20.656 0.15257 20.0033 0.0381426 19.6193L0 19.4657V10.0975L0.0381426 9.98232C0.190713 9.59838 0.572139 9.02246 1.5257 9.02246H1.56385C2.3267 9.02246 3.08955 9.02246 3.8524 9.02246H5.75954V20.656H3.8524C3.08955 20.656 2.3267 20.656 1.5257 20.656C1.56385 20.656 1.5257 20.656 1.5257 20.656ZM1.5257 19.1202C2.3267 19.1202 3.08955 19.1202 3.8524 19.1202H4.23383V10.5198H3.8524C3.08955 10.5198 2.3267 10.5198 1.56385 10.5198V19.1202H1.5257Z" fill="black"/>
</svg>

<svg width="24" height="23" fill="none" xmlns="http://www.w3.org/2000/svg"><path d="M18.995 22H12.74l-.077-.039c-1.792-.076-3.623-.46-5.416-1.036-.267-.077-.686-.346-.686-.998V9.368c0-.384.152-.691.457-.921.916-.73 1.564-1.306 2.136-1.92.572-.614.916-1.19 1.145-1.805.343-.96.686-1.881 1.03-2.764.114-.269.228-.576.457-.883.572-.806 1.411-1.152 2.327-1.037 1.068.154 1.83.768 2.06 1.766.152.423.228.883.228 1.344.077 1.382-.19 2.726-.381 3.955 0 .038 0 .077-.038.153h3.433c.991 0 1.907.5 2.44 1.306.497.768.611 1.728.306 2.61.152.193.305.384.458.615.152.269.228.537.305.768.038.077.038.153.076.23l.038.115-.038.73c0 .038 0 .077-.038.115-.115.576-.382 1.113-.763 1.497a2.83 2.83 0 0 1 .076 1.69 3.079 3.079 0 0 1-.915 1.497 2.869 2.869 0 0 1-.915 3.072c-.42.345-.916.499-1.335.614L18.995 22zm-5.988-1.536h5.797c.267-.077.496-.153.649-.307a1.358 1.358 0 0 0 .343-1.69c-.038-.038-.038-.076-.038-.115l-.305-.614.61-.384c.382-.23.649-.537.725-.921.076-.384.038-.768-.191-1.075l-.42-.615.649-.46c.038-.039.076-.039.114-.077.267-.23.458-.5.534-.845 0-.038 0-.077.038-.115v-.192c0-.077-.038-.115-.038-.192a1.795 1.795 0 0 0-.114-.346c-.076-.153-.229-.307-.381-.46-.077-.077-.153-.192-.23-.27l.573-.498-.725-.269s.076-.23.153-.384a1.26 1.26 0 0 0-.115-1.267 1.461 1.461 0 0 0-1.182-.614H14.189l.267-1.267c.038-.23.076-.461.153-.691.19-1.19.42-2.38.381-3.61 0-.345-.076-.69-.152-1.036-.191-.23-.344-.538-.916-.614-.381-.039-.648.076-.915.422a1.766 1.766 0 0 0-.267.537c-.344.884-.687 1.805-1.03 2.726a6.627 6.627 0 0 1-1.45 2.304c-.572.653-1.258 1.267-2.174 1.997v10.02c1.564.5 3.128.768 4.654.845.114.077.19.077.267.077zM1.526 20.656c-1.03 0-1.373-.653-1.488-1.037L0 19.466v-9.369l.038-.115c.153-.384.534-.96 1.488-.96H5.76v11.634H1.526c.038 0 0 0 0 0zm0-1.536h2.708v-8.6h-2.67v8.6h-.038z" fill="#000"/></svg>
